X:0290
T:Quick Step 10th. Regt.
M:12/8
L:1/8
Q:3/8=88
I: || ::
Z:Jack Campin * www.campin.me.uk * 2009
K:A Mixolydian
e3  ef^g agf  edc|e3  efg BGB d2B |\
e3  ef^g agf  edc|dbd cac BGB d2B||
ecA ABA  ecA  Bcd|ecA ABA BGB d2B |\
ecA ABA  a^gf edc|dfd cec BGB d2B:|
<end>
<start>
